X: 36
T: Stool of Repentance
N: The title refers to the "dunking chair" that was used to punish
N: people in some parts of the British Isles and New England.
R: Jig
B: NEFR #36
Z: John Chambers <jc:trillian.mit.edu>
M: 6/8
L: 1/8
K: A
|:"A"a2e c2e | agf e2c |"Bm"aff f2e |  "D"fag "E7"f2e \
| "A"a2e c2e | agf e2c | "D"d2e f2e | "E7"fac  "A"B2A :|
|:"A"cAA eAA | cAc edc |"Bm"dBB fBB | "Bm"dBB "E7"fed \
| "A"cAA eAA | fag a2e | "D"d2e f2e | "E7"fac  "A"B2A :|


